X: 34092
T: Reel Des Accordeonistes
R: reel
M: 4/4
K: Dmajor
|:"D"A2df "G"edcB|"F#m"ABAG "D"F2EF|"Em"GAGF "G"EBGB|"A"ABAG "F#m"FDFG|
"D"A2df "G"edcB|"F#m"ABAG "D"F2EF|"A"GFEF GABc|1 "A"df"C#m"ec "D"dAFG:|2 "A"df"C#m"ec "D"d4||
|:"G"B2GB d2cB|"D"A2FA dAEF|"A"E2CE A,ECE|"D"DEFG "F#m"ADFA|
"G"B2GB d2cB|"D"ADFA d2cd|"A"efed cBAG|1 "A"FA"C#m"Bc "D"d4:|2 "A"FA"C#m"Bc "D"defe||
|:"G"dBGd BGdB|"D"FdAF d2cd|"A"e2d2 c2B2|"D"ABAG "F#m"F2dc|
"G"dBGd BGdB|"D"FdAF d2cd|"A"efed cBAG|1 "A"FA"C#m"Bc "D"defe:|2 "A"FA"C#m"Bc "D"d4||

